X:2364
T:Green Groves of Erin
O:england
M:4/4
L:1/8
C:Trad
R:Reel
K:G
A2 cA eAcA | G2 Bd gdBG | A2 cA eAcA | BEED EABG | A2 cA eAcA | G2 Bd gd
BG | A2 cA eAcA | BEEF GABd :|
ea a2 ea a2 | eg g2 eg g2 | ea a2 ea a2 | edef gedg | eaag bgag | edef g
3e | dega bgag egfa gedB :|


